X: 11495
T: Eddie Duffy's
R: hornpipe
M: 4/4
K: Gmajor
dc|BGBd cBAF|Dfaf gedc|BG B/c/d cBAG|F/G/A EA D2dc|
BGBd cBAF|Dfaf gedc|B/c/d BG A/B/c AF|1 G2GF G2:|2 G2GF GABc||
dcBA Gaag|~f2d2 d2 e/f/g|agfe dgag|~f2d^c d2ef|
g3e f2fe|dfaf gedc|B/c/d BG A/B/c AF|1 G2GF GABc:|2 G2GF G2||

